!!!COM: Morley, Thomas
!!!OTL: Agnus Dei
!!!YOR: from 'Collected Motets' edited by H.K. Andrews & Thurston Dart, pp.1-4
!!!YOO: Stainer & Bell (London)
!!!YOY: 1959
**kern	**kern	**kern	**kern
*ICvox	*ICvox	*ICvox	*ICvox
! Bassus	! Tenor	! Altus	! Cantus
*M4/4	*M4/4	*M4/4	*M4/4
=1	=1	=1	=1
1r	2.c	1r	1r
.	4c	.	.
=2	=2	=2	=2
1r	1d	2.f	1r
.	.	4f	.
=3	=3	=3	=3
2.F	4c	1a-	1r
.	4c	.	.
.	[{2f	.	.
4F	.	.	.
=4	=4	=4	=4
1c	4f]	4g	2r
.	8en	2g	.
.	8dn	.	.
.	8e	.	[2cc
.	4f	.	.
.	.	4g	.
.	8e}	.	.
=5	=5	=5	=5
2F	4f	2an	4cc]
.	4f	.	4cc
2r	{4.B-	2b-	[2dd-
.	8c	.	.
=6	=6	=6	=6
1r	4d-	4r	2dd-]
.	4B-	4f	.
.	4f	[2a-	2cc
.	[4F	.	.
=7	=7	=7	=7
4r	8F]	2a-]	4r
.	8G	.	.
4F	8A-	.	4cc
.	8B-	.	.
{4.C	8c	4g	[2ee-
.	8dn	.	.
.	[4e-	4g	.
8Dn	.	.	.
=8	=8	=8	=8
4.E-	8e-]	[1g	2ee-]
.	8dn	.	.
.	4c	.	.
8F	.	.	.
[2G	4Bn	.	2ddn
.	[4c	.	.
=9	=9	=9	=9
2G}]	4c]	2g]	4r
.	4Bn}	.	4ddn
2C	4c	4g	[2ee-
.	4c	4g	.
=10	=10	=10	=10
1r	2.f	2.a-	4ee-]
.	.	.	4dd-
.	.	.	{2cc
.	4e-	4g	.
=11	=11	=11	=11
1r	{4d-	{4f	4b-
.	4c	4e-	4a-
.	4B-	8f	4dd-
.	.	8g	.
.	4A-	8a-	4cc
.	.	8f	.
=12	=12	=12	=12
1r	4e-	4g	4b-
.	4f	2a-	4a-
.	2e-}	.	2b-}
.	.	4g}	.
=13	=13	=13	=13
4r	2A-	1a-	1cc
4F	.	.	.
[2A-	4r	.	.
.	4c	.	.
=14	=14	=14	=14
4A-]	2.e-	2r	2r
4G	.	.	.
{4E-	.	4g	4r
4F	4A-	[4a-	4cc
=15	=15	=15	=15
2D-	{2d-	4a-]	2.ff
.	.	4b-	.
[2AA-	4.c	{4.cc	.
.	.	.	4ee-
.	8d-	8b-	.
=16	=16	=16	=16
4AA-]	4e-	8a-	{4cc
.	.	8g	.
4BB-	4B-	8f	4.dd-
.	.	8g	.
4C	4E-	4a-	.
.	.	.	8cc
4E-	4G	4g	[4cc
=17	=17	=17	=17
2D-}	4A-	2f	4cc]
.	4F	.	4b-}
4C	4G}	4e-	2cc
[4c	[4e-	4a-}	.
=18	=18	=18	=18
4c]	4e-]	4g	1r
4B-	4dn	2g	.
2A-	2c	.	.
.	.	4f	.
=19	=19	=19	=19
2G	2B-	4e-	2r
.	.	4dn	.
{2F	2A-	2f	4r
.	.	.	[4cc
=20	=20	=20	=20
2En	2G	4c	4cc]
.	.	{4.g	4b-
2F}	{4.A-	.	2a-
.	.	8f	.
.	.	[4f	.
.	8B-	.	.
=21	=21	=21	=21
2C	2c}	4f]	2g
.	.	4en}	.
4r	2F	4f	2f
[4F	.	[4a-	.
=22	=22	=22	=22
4F]	4r	4a-]	2c
4E-	2c	4g	.
2D-	.	4.f	4r
.	4B-	.	[4ff
.	.	8g	.
=23	=23	=23	=23
2C	4A-	{8a-	4ff]
.	.	8b-	.
.	4G	4cc	4ee-
{8BB-	{4B-	4f	2dd-
8C	.	.	.
8D-	8F	4b-	.
8E-	8G	.	.
=24	=24	=24	=24
4F	8A-	4a-	4cc
.	8B-	.	.
4.C	8c	4.g	{4.ee-
.	8dn	.	.
.	8e-	.	.
8Dn	8f	8f	8ddn
8E-	[4g	4e-	4cc
8F	.	.	.
=25	=25	=25	=25
1G}	8g]	4dn	4bn
.	8f	.	.
.	4e-	4.g	2cc
.	2dn}	.	.
.	.	8f	.
.	.	4d	4b}
=26	=26	=26	=26
4C	4c	4e-	2cc
2c	2e-	4c}	.
.	.	2G	2r
4B-	4dn	.	.
=27	=27	=27	=27
4A-	4c	2r	4r
4G	4B-	.	2ee-
{2F	{4.A-	4r	.
.	.	[4a-	4dd-
.	8B-	.	.
=28	=28	=28	=28
2E-	8c	4a-]	4cc
.	8dn	.	.
.	4e-	4g	4b-
4F	4A-	4f	{4dd-
4A-	4c	4e-	4cc
=29	=29	=29	=29
4D-	4d-	{4f	8b-
.	.	.	8a-
4A-	4c	4.e-	2a-
2E-}	2B-}	.	.
.	.	8d-	.
.	.	4B-}	4g}
=30	=30	=30	=30
2AA-	2A-	4c	2a-
.	.	2a-	.
[2A-	[2c	.	2r
.	.	4g	.
=31	=31	=31	=31
4A-]	4c]	4f	1r
4G	4B-	4e-	.
4F	4A-	{8d-	.
.	.	8c	.
4E-	4G	[4c	.
=32	=32	=32	=32
{2D-	2F	4c]	2r
.	.	4B-}	.
[2C	2G	4c	4r
.	.	[4cc	[4ee-
=33	=33	=33	=33
1C_	2.e-	4cc]	4ee-]
.	.	4b-	4ddn
.	.	4a-	4cc
.	4dn	4g	4b-
=34	=34	=34	=34
*M3/2	*M3/2	*M3/2	*M3/2
1.C}]	4c	{2e-	{4a-
.	4B-	.	4.g
.	{2A-	1c}	.
.	.	.	8f
.	.	.	2f
.	2G}	.	.
.	.	.	4en}
=35	=35	=35	=35
*M4/4	*M4/4	*M4/4	*M4/4
1F;	1F;	1An;	1f;
==	==	==	==
*-	*-	*-	*-
!!!ENC: Mark Laxton
!!!EDD: Mark Laxton
!!!YEC: Mark Laxton, 1987
!!!EMD: Reference records added by D. Huron, 2001
!!!EEV: 1.1
